data/new-amsterdam.svg

<svg width="76.328" height="16.8" viewBox="0 0 76.328 16.8" xmlns="http://www.w3.org/2000/svg"><path transform="translate(0 12.95) scale(.014 -.014)" d="M29 0V649H139L300 281V649H413V0H301L140 368V0Z"/><path transform="translate(6.244 12.95) scale(.014 -.014)" d="M29 0V649H345V544H141V393H285V287H141V106H345V0Z"/><path transform="translate(11.48 12.95) scale(.014 -.014)" d="m158 0q-63 82-92.5 164t-38 167-8.5 176v142h112v-40l-1-39v-35l-1-34q0-94 10.5-180.5t53.5-174.5q43 83 54 172.5t11 180.5v37l-1 36v39l-1 38h112v-37l-1-37v-34l-1-34q0-94 12-186.5t54-175.5q41 82 52.5 172t11.5 182v37l-1 36v39l-1 38h112v-139q0-91-8.5-177t-38-168.5-91.5-164.5h-74q-24 33-45 68.5t-37 71.5q-15-35-35.5-70.5t-46.5-69.5z"/><path transform="translate(24.094 12.95) scale(.014 -.014)" d="m8 0v139q0 93 8.5 178.5t38 167.5 91.5 164h72q63-81 93-164.5t38.5-169.5 8.5-176v-139h-112v128h-127v-128zm111 233h126q-4 70-19 140t-44 131q-30-63-45-132t-18-139z"/><path transform="translate(29.274 12.95) scale(.014 -.014)" d="M31 0V653H142L274 340L408 653H519V0H407V363L314 147H235L143 363V0Z"/><path transform="translate(36.96 12.95) scale(.014 -.014)" d="m200 0q-61 0-96.5 13.5t-52.5 39-21.5 63.5-4.5 86h111v-19l-1-18v-16q0-25 9-34t48-9h17q25 2 36.5 4.5t14.5 12 3 31.5v11l1 13v14l1 26q0 7-0.5 21t-4.5 34q-4 9-22.5 11.5t-33.5 2.5h-4q-61 0-96.5 13t-52.5 38-21.5 61.5-4.5 84.5q0 89 39 126.5t136 37.5q98 0 136.5-39.5t38.5-129.5h-112q0 32-3 45.5t-16.5 16-43.5 2.5-43.5-3-17-15.5-3.5-40.5v-16l-1-23q0-5 0.5-16.5t5.5-25.5q1-3 16.5-6.5t42.5-3.5q66 0 102-15.5t51.5-43 18.5-65 3-82.5v-22q0-90-38.5-127.5t-136.5-37.5z"/><path transform="translate(42.588 12.95) scale(.014 -.014)" d="M91 0V544H-13V649H306V544H202V0Z"/><path transform="translate(46.746 12.95) scale(.014 -.014)" d="M29 0V649H345V544H141V393H285V287H141V106H345V0Z"/><path transform="translate(51.982 12.95) scale(.014 -.014)" d="m31 0v649h176q73 0 113-21.5t53-68.5q6-20 8-49t2-55 0-38q0-40-4-77t-23-64.5-64-40.5l92-235h-120l-88 224h-33v-224zm112 329q46 0 72.5 2t38.5 10.5 15 27 3 52.5q0 9 0 30t-3 43.5-13 33.5q-16 16-49 16h-64z"/><path transform="translate(57.722 12.95) scale(.014 -.014)" d="m28 0v649h175q98 0 136.5-40t38.5-128v-299q0-63-19.5-99.5t-54.5-54-80.5-23-96.5-5.5zm112 106q46 0 74 4t40.5 21 12.5 55v285q0 37-11.5 52t-34.5 18-60 3h-21z"/><path transform="translate(63.406 12.95) scale(.014 -.014)" d="m12 0v139q0 93 8.5 178.5t38 167.5 91.5 164h72q63-81 93-164.5t38.5-169.5 8.5-176v-139h-112v128h-127v-128zm111 233h126q-4 70-19 140t-44 131q-30-63-45-132t-18-139z"/><path transform="translate(68.642 12.95) scale(.014 -.014)" d="M31 0V653H142L274 340L408 653H519V0H407V363L314 147H235L143 363V0Z"/></svg>

<?xml version="1.0" encoding="utf-8" ?>
<svg baseProfile="tiny" height="100%" version="1.2" width="100%" xmlns="http://www.w3.org/2000/svg" xmlns:ev="http://www.w3.org/2001/xml-events" xmlns:xlink="http://www.w3.org/1999/xlink"><defs /><g><path d="M29 0V649H139L300 281V649H413V0H301L140 368V0Z" transform="translate(0.0, 72) scale(0.072, -0.072)" /><path d="M29 0V649H345V544H141V393H285V287H141V106H345V0Z" transform="translate(32.111999999999995, 72) scale(0.072, -0.072)" /><path d="M158 0Q95 82 65.5 164.0Q36 246 27.5 331.0Q19 416 19 507V649H131V609L130 570V535L129 501Q129 407 139.5 320.5Q150 234 193 146Q236 229 247.0 318.5Q258 408 258 499V536L257 572V611L256 649H368V612L367 575V541L366 507Q366 413 378.0 320.5Q390 228 432 145Q473 227 484.5 317.0Q496 407 496 499V536L495 572V611L494 649H606V510Q606 419 597.5 333.0Q589 247 559.5 164.5Q530 82 468 0H394Q370 33 349.0 68.5Q328 104 312 140Q297 105 276.5 69.5Q256 34 230 0Z" transform="translate(59.03999999999999, 72) scale(0.072, -0.072)" /><path d="M8 0V139Q8 232 16.5 317.5Q25 403 54.5 485.0Q84 567 146 649H218Q281 568 311.0 484.5Q341 401 349.5 315.0Q358 229 358 139V0H246V128H119V0ZM119 233H245Q241 303 226.0 373.0Q211 443 182 504Q152 441 137.0 372.0Q122 303 119 233Z" transform="translate(123.91199999999999, 72) scale(0.072, -0.072)" /><path d="M31 0V653H142L274 340L408 653H519V0H407V363L314 147H235L143 363V0Z" transform="translate(150.552, 72) scale(0.072, -0.072)" /><path d="M200 0Q139 0 103.5 13.5Q68 27 51.0 52.5Q34 78 29.5 116.0Q25 154 25 202H136V183L135 165V149Q135 124 144.0 115.0Q153 106 192 106H209Q234 108 245.5 110.5Q257 113 260.0 122.5Q263 132 263 154V165L264 178V192L265 218Q265 225 264.5 239.0Q264 253 260 273Q256 282 237.5 284.5Q219 287 204 287H200Q139 287 103.5 300.0Q68 313 51.0 338.0Q34 363 29.5 399.5Q25 436 25 484Q25 573 64.0 610.5Q103 648 200 648Q298 648 336.5 608.5Q375 569 375 479H263Q263 511 260.0 524.5Q257 538 243.5 540.5Q230 543 200 543Q170 543 156.5 540.0Q143 537 139.5 524.5Q136 512 136 484V468L135 445Q135 440 135.5 428.5Q136 417 141 403Q142 400 157.5 396.5Q173 393 200 393Q266 393 302.0 377.5Q338 362 353.5 334.5Q369 307 372.0 269.5Q375 232 375 187V165Q375 75 336.5 37.5Q298 0 200 0Z" transform="translate(190.07999999999998, 72) scale(0.072, -0.072)" /><path d="M91 0V544H-13V649H306V544H202V0Z" transform="translate(219.02399999999997, 72) scale(0.072, -0.072)" /><path d="M29 0V649H345V544H141V393H285V287H141V106H345V0Z" transform="translate(240.40799999999996, 72) scale(0.072, -0.072)" /><path d="M31 0V649H207Q280 649 320.0 627.5Q360 606 373 559Q379 539 381.0 510.0Q383 481 383.0 455.0Q383 429 383 417Q383 377 379.0 340.0Q375 303 356.0 275.5Q337 248 292 235L384 0H264L176 224H143V0ZM143 329Q189 329 215.5 331.0Q242 333 254.0 341.5Q266 350 269.0 368.5Q272 387 272 421Q272 430 272.0 451.0Q272 472 269.0 494.5Q266 517 256 528Q240 544 207 544H143Z" transform="translate(267.33599999999996, 72) scale(0.072, -0.072)" /><path d="M28 0V649H203Q301 649 339.5 609.0Q378 569 378 481V182Q378 119 358.5 82.5Q339 46 304.0 28.5Q269 11 223.5 5.5Q178 0 127 0ZM140 106Q186 106 214.0 110.0Q242 114 254.5 131.0Q267 148 267 186V471Q267 508 255.5 523.0Q244 538 221.0 541.0Q198 544 161 544H140Z" transform="translate(296.85599999999994, 72) scale(0.072, -0.072)" /><path d="M12 0V139Q12 232 20.5 317.5Q29 403 58.5 485.0Q88 567 150 649H222Q285 568 315.0 484.5Q345 401 353.5 315.0Q362 229 362 139V0H250V128H123V0ZM123 233H249Q245 303 230.0 373.0Q215 443 186 504Q156 441 141.0 372.0Q126 303 123 233Z" transform="translate(326.08799999999997, 72) scale(0.072, -0.072)" /><path d="M31 0V653H142L274 340L408 653H519V0H407V363L314 147H235L143 363V0Z" transform="translate(353.01599999999996, 72) scale(0.072, -0.072)" /></g></svg>
